;FLAVOR:Marlin
;TIME:13948
;Filament used: 8.61152m
;Layer height: 0.2
;MINX:94.098
;MINY:51.039
;MINZ:0.2
;MAXX:175.372
;MAXY:168.459
;MAXZ:31
;Generated with Cura_SteamEngine 4.9.1
M140 S50
M105
M190 S50
M104 S230
M105
M109 S230
M82 ;absolute extrusion mode
; Ender 3 Custom Start G-code
G92 E0 ; Reset Extruder
G28 ; Home all axes
G1 Z2.0 F3000 ; Move Z Axis up little to prevent scratching of Heat Bed
G1 X0.1 Y20 Z0.3 F5000.0 ; Move to start position
G1 X0.1 Y200.0 Z0.3 F1500.0 E15 ; Draw the first line
G1 X0.4 Y200.0 Z0.3 F5000.0 ; Move to side a little
G1 X0.4 Y20 Z0.3 F1500.0 E30 ; Draw the second line
G92 E0 ; Reset Extruder
G1 Z2.0 F3000 ; Move Z Axis up little to prevent scratching of Heat Bed
G1 X5 Y20 Z0.3 F5000.0 ; Move over to prevent blob squish
M83 ;relative extrusion mode
G1 F2700 E-5
;LAYER_COUNT:155
;LAYER:0
M107
;MESH:modular_lining_2.STL(3)
G0 F9000 X137.654 Y108.659 Z0.2
;TYPE:WALL-INNER
G1 F2700 E5
G1 F1500 X137.654 Y106.53 E0.07081
G1 X119.113 Y80.049 E1.07519
G1 X137.654 Y53.568 E1.07519
G1 X137.654 Y51.439 E0.07081
G1 X165.029 Y51.439 E0.9105
G1 X165.029 Y53.189 E0.05821
G1 X146.223 Y80.049 E1.09057
G1 X165.029 Y106.909 E1.09057
G1 X165.029 Y108.659 E0.05821
G1 X137.654 Y108.659 E0.9105
G0 F9000 X137.254 Y109.059
;TYPE:WALL-OUTER
G1 F1500 X137.254 Y106.656 E0.07992
G1 X118.625 Y80.049 E1.0803
G1 X137.254 Y53.442 E1.0803
G1 X137.254 Y51.039 E0.07992
G1 X165.429 Y51.039 E0.9371
G1 X165.429 Y53.315 E0.0757
G1 X146.711 Y80.049 E1.08546
G1 X165.429 Y106.783 E1.08546
G1 X165.429 Y109.059 E0.0757
G1 X137.254 Y109.059 E0.9371
G0 F9000 X137.524 Y108.789
G0 X137.764 Y108.269
G0 X138.044 Y108.269
;TYPE:SKIN
G1 F1500 X138.044 Y106.407 E0.06193
G1 X119.59 Y80.049 E1.07018
G1 X138.044 Y53.691 E1.07018
G1 X138.044 Y51.829 E0.06193
G1 X164.639 Y51.829 E0.88455
G1 X164.639 Y53.065 E0.04111
G1 X145.747 Y80.049 E1.09559
G1 X164.639 Y107.033 E1.09559
G1 X164.639 Y108.269 E0.04111
G1 X138.044 Y108.269 E0.88455
G0 F9000 X138.655 Y108.108
G1 F1500 X138.203 Y107.656 E0.02126
G0 F9000 X138.203 Y107.09
G1 F1500 X139.221 Y108.108 E0.04788
G0 F9000 X139.787 Y108.108
G1 F1500 X138.203 Y106.524 E0.07451
G0 F9000 X137.764 Y106.524
G0 X136.915 Y105.282
G0 X137.275 Y105.031
G1 F1500 X140.352 Y108.108 E0.14473
G0 F9000 X140.918 Y108.108
G1 F1500 X135.954 Y103.144 E0.23349
G0 F9000 X135.594 Y103.395
G0 X134.274 Y101.51
G0 X134.634 Y101.259
G1 F1500 X141.484 Y108.108 E0.32218
G0 F9000 X142.049 Y108.108
G1 F1500 X133.313 Y99.372 E0.41091
G0 F9000 X132.953 Y99.623
G0 X131.633 Y97.738
G0 X131.993 Y97.486
G1 F1500 X142.615 Y108.108 E0.49963
G0 F9000 X143.181 Y108.108
G1 F1500 X130.672 Y95.6 E0.58836
G0 F9000 X130.312 Y95.851
G0 X128.992 Y93.966
G0 X129.352 Y93.714
G1 F1500 X143.747 Y108.108 E0.67707
G0 F9000 X144.312 Y108.108
G1 F1500 X128.031 Y91.827 E0.76581
G0 F9000 X127.671 Y92.079
G0 X126.35 Y90.193
G0 X126.711 Y89.941
G1 F1500 X144.878 Y108.108 E0.85452
G0 F9000 X145.444 Y108.108
G1 F1500 X125.39 Y88.055 E0.94326
G0 F9000 X125.03 Y88.307
G0 X123.709 Y86.421
G0 X124.07 Y86.169
G1 F1500 X146.009 Y108.108 E1.03194
G0 F9000 X146.575 Y108.108
G1 F1500 X122.749 Y84.282 E1.1207
G0 F9000 X122.388 Y84.534
G0 X121.068 Y82.649
G0 X121.429 Y82.397
G1 F1500 X147.141 Y108.108 E1.20939
G0 F9000 X147.706 Y108.108
G1 F1500 X120.108 Y80.51 E1.29813
G0 F9000 X119.96 Y79.797
G1 F1500 X148.272 Y108.108 E1.33169
G0 F9000 X148.838 Y108.108
G1 F1500 X120.194 Y79.464 E1.34733
G0 F9000 X120.426 Y79.131
G1 F1500 X149.403 Y108.108 E1.36299
G0 F9000 X149.969 Y108.108
G1 F1500 X120.659 Y78.799 E1.37863
G0 F9000 X120.892 Y78.466
G1 F1500 X150.535 Y108.108 E1.39429
G0 F9000 X151.1 Y108.108
G1 F1500 X121.125 Y78.133 E1.40993
G0 F9000 X121.358 Y77.8
G1 F1500 X151.666 Y108.108 E1.4256
G0 F9000 X152.232 Y108.108
G1 F1500 X121.591 Y77.467 E1.44126
G0 F9000 X121.824 Y77.135
G1 F1500 X152.797 Y108.108 E1.45687
G0 F9000 X153.363 Y108.108
G1 F1500 X122.057 Y76.802 E1.47254
G0 F9000 X122.29 Y76.47
G1 F1500 X153.929 Y108.108 E1.48818
G0 F9000 X154.495 Y108.108
G1 F1500 X122.523 Y76.137 E1.50384
G0 F9000 X122.755 Y75.803
G1 F1500 X155.06 Y108.108 E1.51953
G0 F9000 X155.626 Y108.108
G1 F1500 X122.989 Y75.471 E1.53514
G0 F9000 X123.221 Y75.138
G1 F1500 X156.192 Y108.108 E1.55083
G0 F9000 X156.757 Y108.108
G1 F1500 X123.455 Y74.806 E1.56642
G0 F9000 X123.687 Y74.473
G1 F1500 X157.323 Y108.108 E1.58211
G0 F9000 X157.889 Y108.108
G1 F1500 X123.921 Y74.14 E1.59775
G0 F9000 X124.153 Y73.807
G1 F1500 X158.454 Y108.108 E1.61341
G0 F9000 X159.02 Y108.108
G1 F1500 X124.387 Y73.475 E1.62903
G0 F9000 X124.619 Y73.142
G1 F1500 X159.586 Y108.108 E1.64472
G0 F9000 X160.151 Y108.108
G1 F1500 X124.852 Y72.809 E1.66036
G0 F9000 X125.085 Y72.477
G1 F1500 X160.717 Y108.108 E1.676
G0 F9000 X161.283 Y108.108
G1 F1500 X125.318 Y72.143 E1.69168
G0 F9000 X125.551 Y71.811
G1 F1500 X161.848 Y108.108 E1.7073
G0 F9000 X162.414 Y108.108
G1 F1500 X125.784 Y71.478 E1.72296
G0 F9000 X126.017 Y71.146
G1 F1500 X162.98 Y108.108 E1.7386
G0 F9000 X163.546 Y108.108
G1 F1500 X126.25 Y70.813 E1.75427
G0 F9000 X126.483 Y70.48
G1 F1500 X164.111 Y108.108 E1.76991
G0 F9000 X164.478 Y107.91
G1 F1500 X126.716 Y70.147 E1.77623
G0 F9000 X126.949 Y69.814
G1 F1500 X164.478 Y107.344 E1.76527
G0 F9000 X164.919 Y107.344
G0 X164.87 Y107.037
G0 X164.127 Y105.813
G0 X163.765 Y106.066
G1 F1500 X127.182 Y69.482 E1.72078
G0 F9000 X127.414 Y69.149
G1 F1500 X162.445 Y104.179 E1.64773
G0 F9000 X162.806 Y103.927
G0 X161.485 Y102.041
G0 X161.124 Y102.293
G1 F1500 X127.648 Y68.817 E1.57461
G0 F9000 X127.88 Y68.483
G1 F1500 X159.804 Y100.407 E1.50161
G0 F9000 X160.165 Y100.155
G0 X158.844 Y98.268
G0 X158.483 Y98.52
G1 F1500 X128.114 Y68.151 E1.42846
G0 F9000 X128.346 Y67.818
G1 F1500 X157.162 Y96.634 E1.35542
G0 F9000 X157.523 Y96.382
G0 X156.203 Y94.496
G0 X155.842 Y94.748
G1 F1500 X128.579 Y67.485 E1.28237
G0 F9000 X128.812 Y67.153
G1 F1500 X154.521 Y92.861 E1.20925
G0 F9000 X154.882 Y92.609
G0 X153.561 Y90.723
G0 X153.201 Y90.975
G1 F1500 X129.045 Y66.82 E1.1362
G0 F9000 X129.278 Y66.487
G1 F1500 X151.88 Y89.089 E1.06313
G0 F9000 X152.241 Y88.837
G0 X150.921 Y86.951
G0 X150.56 Y87.203
G1 F1500 X129.511 Y66.154 E0.99008
G0 F9000 X129.744 Y65.822
G1 F1500 X149.239 Y85.316 E0.91696
G0 F9000 X149.599 Y85.064
G0 X148.279 Y83.178
G0 X147.918 Y83.43
G1 F1500 X129.977 Y65.489 E0.84389
G0 F9000 X130.21 Y65.156
G1 F1500 X146.598 Y81.544 E0.77084
G0 F9000 X146.958 Y81.292
G0 X146.067 Y80.049
G0 X145.599 Y79.98
G1 F1500 X130.443 Y64.824 E0.71289
G0 F9000 X130.676 Y64.49
G1 F1500 X145.832 Y79.647 E0.71292
G0 F9000 X146.065 Y79.314
G1 F1500 X130.909 Y64.158 E0.71289
G0 F9000 X131.142 Y63.825
G1 F1500 X146.298 Y78.981 E0.71289
G0 F9000 X146.531 Y78.649
G1 F1500 X131.375 Y63.493 E0.71289
G0 F9000 X131.608 Y63.16
G1 F1500 X146.764 Y78.316 E0.71289
G0 F9000 X146.996 Y77.983
G1 F1500 X131.841 Y62.827 E0.71287
G0 F9000 X132.074 Y62.494
G1 F1500 X147.23 Y77.65 E0.71289
G0 F9000 X147.462 Y77.317
G1 F1500 X132.306 Y62.161 E0.71289
G0 F9000 X132.54 Y61.829
G1 F1500 X147.696 Y76.985 E0.71289
G0 F9000 X147.928 Y76.652
G1 F1500 X132.772 Y61.496 E0.71289
G0 F9000 X133.006 Y61.164
G1 F1500 X148.162 Y76.32 E0.71289
G0 F9000 X148.394 Y75.987
G1 F1500 X133.238 Y60.83 E0.71292
G0 F9000 X133.472 Y60.498
G1 F1500 X148.628 Y75.654 E0.71289
G0 F9000 X148.86 Y75.321
G1 F1500 X133.704 Y60.165 E0.71289
G0 F9000 X133.937 Y59.832
G1 F1500 X149.093 Y74.988 E0.71289
G0 F9000 X149.326 Y74.656
G1 F1500 X134.17 Y59.5 E0.71289
G0 F9000 X134.403 Y59.167
G1 F1500 X149.559 Y74.323 E0.71289
G0 F9000 X149.792 Y73.99
G1 F1500 X134.636 Y58.834 E0.71289
G0 F9000 X134.869 Y58.501
G1 F1500 X150.025 Y73.657 E0.71289
G0 F9000 X150.258 Y73.325
G1 F1500 X135.102 Y58.169 E0.71289
G0 F9000 X135.335 Y57.836
G1 F1500 X150.491 Y72.992 E0.71289
G0 F9000 X150.724 Y72.66
G1 F1500 X135.568 Y57.504 E0.71289
G0 F9000 X135.801 Y57.17
G1 F1500 X150.957 Y72.327 E0.71292
G0 F9000 X151.19 Y71.994
G1 F1500 X136.033 Y56.837 E0.71294
G0 F9000 X136.267 Y56.505
G1 F1500 X151.423 Y71.661 E0.71289
G0 F9000 X151.656 Y71.328
G1 F1500 X136.499 Y56.172 E0.71292
G0 F9000 X136.733 Y55.84
G1 F1500 X151.889 Y70.996 E0.71289
G0 F9000 X152.122 Y70.663
G1 F1500 X136.965 Y55.507 E0.71292
G0 F9000 X137.199 Y55.174
G1 F1500 X152.355 Y70.33 E0.71289
G0 F9000 X152.587 Y69.997
G1 F1500 X137.431 Y54.841 E0.71289
G0 F9000 X137.664 Y54.508
G1 F1500 X152.82 Y69.664 E0.71289
G0 F9000 X153.053 Y69.332
G1 F1500 X137.897 Y54.176 E0.71289
G0 F9000 X138.13 Y53.843
G1 F1500 X153.286 Y68.999 E0.71289
G0 F9000 X153.519 Y68.667
G1 F1500 X138.203 Y53.35 E0.72044
G0 F9000 X138.203 Y52.784
G1 F1500 X153.752 Y68.334 E0.7314
G0 F9000 X153.985 Y68.001
G1 F1500 X138.203 Y52.219 E0.74234
G0 F9000 X138.538 Y51.988
G1 F1500 X154.218 Y67.668 E0.73754
G0 F9000 X154.451 Y67.336
G1 F1500 X139.104 Y51.988 E0.7219
G0 F9000 X139.669 Y51.988
G1 F1500 X154.684 Y67.003 E0.70626
G0 F9000 X154.917 Y66.67
G1 F1500 X140.235 Y51.988 E0.6906
G0 F9000 X140.801 Y51.988
G1 F1500 X155.15 Y66.337 E0.67493
G0 F9000 X155.383 Y66.004
G1 F1500 X141.366 Y51.988 E0.65929
G0 F9000 X141.932 Y51.988
G1 F1500 X155.616 Y65.672 E0.64365
G0 F9000 X155.849 Y65.339
G1 F1500 X142.498 Y51.988 E0.62799
G0 F9000 X143.063 Y51.988
G1 F1500 X156.082 Y65.007 E0.61237
G0 F9000 X156.315 Y64.674
G1 F1500 X143.629 Y51.988 E0.59671
G0 F9000 X144.195 Y51.988
G1 F1500 X156.548 Y64.341 E0.58105
G0 F9000 X156.781 Y64.008
G1 F1500 X144.761 Y51.988 E0.56538
G0 F9000 X145.326 Y51.988
G1 F1500 X157.013 Y63.675 E0.54972
G0 F9000 X157.247 Y63.343
G1 F1500 X145.892 Y51.988 E0.5341
G0 F9000 X146.458 Y51.988
G1 F1500 X157.479 Y63.01 E0.51842
G0 F9000 X157.713 Y62.677
G1 F1500 X147.023 Y51.988 E0.5028
G0 F9000 X147.589 Y51.988
G1 F1500 X157.945 Y62.344 E0.48711
G0 F9000 X158.179 Y62.012
G1 F1500 X148.155 Y51.988 E0.4715
G0 F9000 X148.72 Y51.988
G1 F1500 X158.411 Y61.679 E0.45583
G0 F9000 X158.644 Y61.346
G1 F1500 X149.286 Y51.988 E0.44017
G0 F9000 X149.852 Y51.988
G1 F1500 X158.877 Y61.014 E0.42453
G0 F9000 X159.11 Y60.681
G1 F1500 X150.417 Y51.988 E0.40889
G0 F9000 X150.983 Y51.988
G1 F1500 X159.343 Y60.348 E0.39323
G0 F9000 X159.576 Y60.015
G1 F1500 X151.549 Y51.988 E0.37757
G0 F9000 X152.114 Y51.988
G1 F1500 X159.809 Y59.683 E0.36195
G0 F9000 X160.042 Y59.35
G1 F1500 X152.68 Y51.988 E0.34629
G0 F9000 X153.246 Y51.988
G1 F1500 X160.275 Y59.017 E0.33062
G0 F9000 X160.508 Y58.684
G1 F1500 X153.811 Y51.988 E0.31498
G0 F9000 X154.377 Y51.988
G1 F1500 X160.74 Y58.351 E0.2993
G0 F9000 X160.974 Y58.019
G1 F1500 X154.943 Y51.988 E0.28368
G0 F9000 X155.509 Y51.988
G1 F1500 X161.206 Y57.686 E0.26799
G0 F9000 X161.44 Y57.354
G1 F1500 X156.074 Y51.988 E0.2524
G0 F9000 X156.64 Y51.988
G1 F1500 X161.672 Y57.021 E0.23671
G0 F9000 X161.906 Y56.688
G1 F1500 X157.206 Y51.988 E0.22107
G0 F9000 X157.771 Y51.988
G1 F1500 X162.138 Y56.355 E0.20541
G0 F9000 X162.372 Y56.023
G1 F1500 X158.337 Y51.988 E0.18979
G0 F9000 X158.903 Y51.988
G1 F1500 X162.604 Y55.69 E0.17411
G0 F9000 X162.837 Y55.357
G1 F1500 X159.468 Y51.988 E0.15847
G0 F9000 X160.034 Y51.988
G1 F1500 X163.07 Y55.024 E0.1428
G0 F9000 X163.303 Y54.691
G1 F1500 X160.6 Y51.988 E0.12714
G0 F9000 X161.165 Y51.988
G1 F1500 X163.536 Y54.359 E0.11152
G0 F9000 X163.769 Y54.026
G1 F1500 X161.731 Y51.988 E0.09586
G0 F9000 X162.297 Y51.988
G1 F1500 X164.002 Y53.694 E0.08022
G0 F9000 X164.235 Y53.361
G1 F1500 X162.862 Y51.988 E0.06458
G0 F9000 X163.428 Y51.988
G1 F1500 X164.468 Y53.028 E0.04892
G0 F9000 X164.477 Y52.472
G1 F1500 X163.994 Y51.988 E0.02274
G0 F9000 X163.994 Y51.639
G1 F2700 E-5
;MESH:modular_lining_2.STL(1)
G0 F9000 X163.994 Y51.549
G0 X164.847 Y51.621
G0 X164.857 Y53.135
G0 X146.427 Y80.049
G0 X164.857 Y106.963
G0 X164.847 Y108.477
G0 X137.474 Y108.839
G0 X135.206 Y110.428
G0 X140.198 Y117.501
G0 X122.035 Y144.033
G0 X121.873 Y146.111
;TYPE:WALL-INNER
G1 F2700 E5
G1 F1500 X94.498 Y146.111 E0.9105
G1 X94.498 Y144.361 E0.05821
G1 X113.304 Y117.501 E1.09057
G1 X94.498 Y90.641 E1.09057
G1 X94.498 Y88.891 E0.05821
G1 X121.873 Y88.891 E0.9105
G1 X121.873 Y91.02 E0.07081
G1 X140.414 Y117.501 E1.07519
G1 X121.873 Y143.982 E1.07519
G1 X121.873 Y146.111 E0.07081
G0 F9000 X122.273 Y146.511
;TYPE:WALL-OUTER
G1 F1500 X94.098 Y146.511 E0.9371
G1 X94.098 Y144.235 E0.0757
G1 X112.816 Y117.501 E1.08546
G1 X94.098 Y90.767 E1.08546
G1 X94.098 Y88.491 E0.0757
G1 X122.273 Y88.491 E0.9371
G1 X122.273 Y90.894 E0.07992
G1 X140.902 Y117.501 E1.0803
G1 X122.273 Y144.108 E1.0803
G1 X122.273 Y146.511 E0.07992
G0 F9000 X122.003 Y146.241
G0 X121.763 Y145.721
G0 X121.483 Y145.721
;TYPE:SKIN
G1 F1500 X94.888 Y145.721 E0.88455
G1 X94.888 Y144.485 E0.04111
G1 X113.78 Y117.501 E1.09559
G1 X94.888 Y90.517 E1.09559
G1 X94.888 Y89.281 E0.04111
G1 X121.483 Y89.281 E0.88455
G1 X121.483 Y91.143 E0.06193
G1 X139.937 Y117.501 E1.07018
G1 X121.483 Y143.859 E1.07018
G1 X121.483 Y145.721 E0.06193
G0 F9000 X121.763 Y145.721
G0 X95.214 Y146.001
G0 X95.214 Y145.56
G1 F1500 X95.047 Y145.393 E0.00786
G0 F9000 X95.047 Y144.828
G1 F1500 X95.779 Y145.56 E0.03443
G0 F9000 X96.345 Y145.56
G1 F1500 X95.159 Y144.374 E0.05579
G0 F9000 X95.392 Y144.041
G1 F1500 X96.911 Y145.56 E0.07145
G0 F9000 X97.476 Y145.56
G1 F1500 X95.625 Y143.708 E0.08709
G0 F9000 X95.858 Y143.376
G1 F1500 X98.042 Y145.56 E0.10273
G0 F9000 X98.608 Y145.56
G1 F1500 X96.091 Y143.043 E0.11839
G0 F9000 X96.324 Y142.711
G1 F1500 X99.173 Y145.56 E0.13401
G0 F9000 X99.739 Y145.56
G1 F1500 X96.557 Y142.378 E0.14967
G0 F9000 X96.79 Y142.045
G1 F1500 X100.305 Y145.56 E0.16533
G0 F9000 X100.87 Y145.56
G1 F1500 X97.023 Y141.712 E0.18097
G0 F9000 X97.256 Y141.379
G1 F1500 X101.436 Y145.56 E0.19664
G0 F9000 X102.002 Y145.56
G1 F1500 X97.489 Y141.047 E0.21228
G0 F9000 X97.722 Y140.714
G1 F1500 X102.567 Y145.56 E0.22792
G0 F9000 X103.133 Y145.56
G1 F1500 X97.955 Y140.381 E0.24358
G0 F9000 X98.188 Y140.048
G1 F1500 X103.699 Y145.56 E0.25924
G0 F9000 X104.265 Y145.56
G1 F1500 X98.421 Y139.716 E0.27488
G0 F9000 X98.654 Y139.383
G1 F1500 X104.83 Y145.56 E0.29052
G0 F9000 X105.396 Y145.56
G1 F1500 X98.886 Y139.05 E0.30621
G0 F9000 X99.12 Y138.718
G1 F1500 X105.962 Y145.56 E0.32183
G0 F9000 X106.527 Y145.56
G1 F1500 X99.352 Y138.385 E0.33749
G0 F9000 X99.586 Y138.052
G1 F1500 X107.093 Y145.56 E0.35313
G0 F9000 X107.659 Y145.56
G1 F1500 X99.818 Y137.719 E0.36882
G0 F9000 X100.052 Y137.387
G1 F1500 X108.224 Y145.56 E0.38441
G0 F9000 X108.79 Y145.56
G1 F1500 X100.284 Y137.054 E0.4001
G0 F9000 X100.518 Y136.721
G1 F1500 X109.356 Y145.56 E0.41574
G0 F9000 X109.921 Y145.56
G1 F1500 X100.75 Y136.388 E0.4314
G0 F9000 X100.983 Y136.055
G1 F1500 X110.487 Y145.56 E0.44706
G0 F9000 X111.053 Y145.56
G1 F1500 X101.216 Y135.723 E0.4627
G0 F9000 X101.449 Y135.39
G1 F1500 X111.618 Y145.56 E0.47834
G0 F9000 X112.184 Y145.56
G1 F1500 X101.682 Y135.058 E0.49398
G0 F9000 X101.915 Y134.725
G1 F1500 X112.75 Y145.56 E0.50965
G0 F9000 X113.315 Y145.56
G1 F1500 X102.148 Y134.392 E0.52528
G0 F9000 X102.381 Y134.059
G1 F1500 X113.881 Y145.56 E0.54095
G0 F9000 X114.447 Y145.56
G1 F1500 X102.614 Y133.727 E0.55659
G0 F9000 X102.847 Y133.394
G1 F1500 X115.013 Y145.56 E0.57225
G0 F9000 X115.578 Y145.56
G1 F1500 X103.079 Y133.061 E0.58791
G0 F9000 X103.313 Y132.728
G1 F1500 X116.144 Y145.56 E0.60355
G0 F9000 X116.71 Y145.56
G1 F1500 X103.545 Y132.395 E0.61924
G0 F9000 X103.779 Y132.063
G1 F1500 X117.275 Y145.56 E0.63483
G0 F9000 X117.841 Y145.56
G1 F1500 X104.011 Y131.73 E0.65052
G0 F9000 X104.245 Y131.398
G1 F1500 X118.407 Y145.56 E0.66614
G0 F9000 X118.972 Y145.56
G1 F1500 X104.477 Y131.065 E0.6818
G0 F9000 X104.71 Y130.732
G1 F1500 X119.538 Y145.56 E0.69746
G0 F9000 X120.104 Y145.56
G1 F1500 X104.943 Y130.399 E0.71313
G0 F9000 X105.176 Y130.066
G1 F1500 X120.669 Y145.56 E0.72877
G0 F9000 X121.235 Y145.56
G1 F1500 X105.409 Y129.734 E0.74441
G0 F9000 X105.642 Y129.401
G1 F1500 X121.323 Y145.082 E0.73759
G0 F9000 X121.323 Y144.516
G1 F1500 X105.875 Y129.068 E0.72663
G0 F9000 X106.108 Y128.735
G1 F1500 X121.323 Y143.95 E0.71567
G0 F9000 X121.497 Y143.559
G1 F1500 X106.341 Y128.403 E0.71289
G0 F9000 X106.574 Y128.07
G1 F1500 X121.73 Y143.226 E0.71289
G0 F9000 X121.963 Y142.893
